X: 31413
T: COTILLION No. 32. ISLE OF SHOALS' SETT tune 6
C:
%R: reel
B: Elias Howe "The Musician's Companion" Part 3 1844 p.141 #3
S: http://imslp.org/wiki/The_Musician's_Companion_(Howe,_Elias)
Z: 2015 John Chambers <jc:trillian.mit.edu>
M: 2/4
L: 1/16
K: C
% - - - - - - - - - - - - - - - - - - - - - - - - - - - - -
c'>c' |\
c'2gg g2ee | efde c2ce | dBce ggfe | d2d2 d^cde |\
f2fd cBag | g3f ec'ge | dafd Bcde | d4 c2 H|]
e2 |\
c'3b abc'a | b2e'2 e2e'2 | d'3c' bc'd'b | c'2e'2 a2c'b |\
a2ag f2fe | e2d2 dedc | B2Bc d2e2 | A2a2"^D.C."A2 |]
% - - - - - - - - - - Dance description - - - - - - - - - -
%%begintext align
%% First 2 balance,
%% chassa,
%% back and cross over,
%% chassa, &c.
%%endtext
% - - - - - - - - - - - - - - - - - - - - - - - - - - - - -
%%sep 1 1 300
